assets/images/svg/star-fill.svg

<svg width="15" height="15" viewBox="0 0 15 15" fill="none" xmlns="http://www.w3.org/2000/svg">
<path d="M8.58156 2.20046L9.68156 4.4184C9.83156 4.72715 10.2316 5.02329 10.5691 5.08L12.5628 5.41395C13.8378 5.62818 14.1378 6.56072 13.2191 7.48066L11.6691 9.0433C11.4066 9.30794 11.2628 9.81831 11.3441 10.1838L11.7878 12.1182C12.1378 13.6493 11.3316 14.2416 9.98781 13.4414L8.11906 12.3261C7.78156 12.1245 7.22531 12.1245 6.88156 12.3261L5.01281 13.4414C3.67531 14.2416 2.86281 13.643 3.21281 12.1182L3.65656 10.1838C3.73781 9.81831 3.59406 9.30794 3.33156 9.0433L1.78156 7.48066C0.869059 6.56072 1.16281 5.62818 2.43781 5.41395L4.43156 5.08C4.76281 5.02329 5.16281 4.72715 5.31281 4.4184L6.41281 2.20046C7.01281 0.996981 7.98781 0.996981 8.58156 2.20046Z" fill="#FFC412"/>
</svg>

<svg xmlns="http://www.w3.org/2000/svg" width="15" height="15" fill="none" viewBox="0 0 15 15"><path fill="#ffc412" d="m8.582 2.2 1.1 2.218c.15.31.55.605.887.662l1.994.334c1.275.214 1.575 1.147.656 2.067l-1.55 1.562c-.262.265-.406.775-.325 1.14l.444 1.935c.35 1.531-.456 2.124-1.8 1.323l-1.869-1.115c-.337-.202-.894-.202-1.237 0l-1.87 1.115c-1.337.8-2.15.202-1.8-1.323l.445-1.934c.08-.366-.063-.876-.325-1.14L1.782 7.48c-.913-.92-.62-1.853.656-2.067l1.994-.334c.33-.057.73-.353.88-.662l1.1-2.218c.6-1.203 1.576-1.203 2.17 0"/></svg>
